src/assets/img/icons/instagram_hv.svg

<?xml version="1.0" encoding="UTF-8"?>
<svg width="113px" height="113px" viewBox="0 0 113 113" version="1.1" xmlns="http://www.w3.org/2000/svg" xmlns:xlink="http://www.w3.org/1999/xlink">
    <!-- Generator: Sketch 50.2 (55047) - http://www.bohemiancoding.com/sketch -->
    <title>instagram_hv</title>
    <desc>Created with Sketch.</desc>
    <defs></defs>
    <g id="Page-1" stroke="none" stroke-width="1" fill="none" fill-rule="evenodd">
        <g id="instagram_hv" transform="translate(0.500000, 0.630510)">
            <path d="M112,56 C112,86.926 86.9166667,112 56,112 C25.0833333,112 0,86.926 0,56 C0,25.0693333 25.0833333,0 56,0 C86.9166667,0 112,25.0693333 112,56" id="Fill-1397" fill="#517FA4"></path>
            <path d="M84.1866667,77.4736667 C84.1866667,81.1743333 81.1766667,84.182 77.4666667,84.182 L34.5333333,84.182 C30.8233333,84.182 27.8133333,81.1743333 27.8133333,77.4736667 L27.8133333,48.818 L38.2666667,48.818 C37.3566667,51.037 36.8666667,53.4613333 36.8666667,56 C36.8666667,66.5536667 45.4533333,75.1403333 56,75.1403333 C66.5466667,75.1403333 75.1333333,66.5536667 75.1333333,56 C75.1333333,53.4613333 74.62,51.037 73.7333333,48.818 L84.1866667,48.818 L84.1866667,77.4736667 L84.1866667,77.4736667 Z M46.0133333,48.818 C48.2533333,45.7146667 51.8933333,43.6823333 56,43.6823333 C60.1066667,43.6823333 63.7466667,45.7146667 65.9866667,48.818 C67.4566667,50.841 68.32,53.3213333 68.32,56 C68.32,62.79 62.79,68.3176667 56,68.3176667 C49.21,68.3176667 43.68,62.79 43.68,56 C43.68,53.3213333 44.5433333,50.841 46.0133333,48.818 L46.0133333,48.818 Z M81.3633333,29.071 L82.9033333,29.0616667 L82.9033333,40.9243333 L71.0733333,40.9663333 L71.0266667,29.1036667 L81.3633333,29.071 L81.3633333,29.071 Z M77.4666667,21 L34.5333333,21 C27.0666667,21 21,27.0666667 21,34.5263333 L21,77.4736667 C21,84.9333333 27.0666667,91 34.5333333,91 L77.4666667,91 C84.9333333,91 91,84.9333333 91,77.4736667 L91,34.5263333 C91,27.0666667 84.9333333,21 77.4666667,21 L77.4666667,21 Z" id="Fill-1398" fill="#FFFFFF"></path>
        </g>
    </g>
</svg>

<?xml version="1.0" encoding="utf-8"?>
<svg version="1.1" id="Layer_1" xmlns:sketch="http://www.bohemiancoding.com/sketch/ns"
	 xmlns="http://www.w3.org/2000/svg" xmlns:xlink="http://www.w3.org/1999/xlink" x="0px" y="0px" width="113px" height="113px"
	 viewBox="0 0 113 113" enable-background="new 0 0 113 113" xml:space="preserve">
<title>Instagram_hv</title>
<desc>Created with Sketch.</desc>
<g id="Page-1" sketch:type="MSPage">
	<g id="Instagram_hv" transform="translate(0.500000, 0.630510)" sketch:type="MSLayerGroup">
		<path id="Fill-1397" sketch:type="MSShapeGroup" fill="#517FA4" d="M112,56c0,30.926-25.084,56-56,56C25.083,112,0,86.926,0,56
			C0,25.069,25.083,0,56,0C86.916,0,112,25.069,112,56"/>
		<path id="Fill-1398" sketch:type="MSShapeGroup" fill="#FFFFFF" d="M84.187,77.473c0,3.701-3.01,6.709-6.72,6.709H34.533
			c-3.71,0-6.72-3.008-6.72-6.709V48.818h10.453c-0.91,2.219-1.4,4.644-1.4,7.182c0,10.553,8.586,19.141,19.133,19.141
			S75.133,66.553,75.133,56c0-2.539-0.513-4.963-1.399-7.182h10.453V77.473L84.187,77.473z M46.013,48.818
			c2.24-3.103,5.88-5.135,9.987-5.135s7.746,2.032,9.986,5.135c1.471,2.023,2.334,4.503,2.334,7.182
			c0,6.79-5.53,12.318-12.32,12.318S43.68,62.789,43.68,56C43.68,53.321,44.543,50.841,46.013,48.818L46.013,48.818z M81.363,29.071
			l1.54-0.009v11.862l-11.83,0.042l-0.046-11.862L81.363,29.071L81.363,29.071z M77.467,21H34.533C27.067,21,21,27.067,21,34.526
			v42.947C21,84.934,27.067,91,34.533,91h42.934C84.934,91,91,84.934,91,77.473V34.526C91,27.067,84.934,21,77.467,21L77.467,21z"/>
	</g>
</g>
</svg>
